shader Moisture(
        color Height = 0.0
            [[ string help = "[in] Color of texture used as height."]] ,
        color Moisture = 0.0
            [[ string help = "[in] Color of Moisture map."]] ,
        output vector Output = 0.0
            [[ string help = "[out] Displacement vector."]]
    )
    {  
        Output = (Height * 100, Moisture * 100);
    }
